app/images/icons/search.svg

<svg fill="none" height="19" viewBox="0 0 18 19" width="18" xmlns="http://www.w3.org/2000/svg"><path d="m17.7539 15.8242-3.5156-3.5156c-.1758-.1406-.3867-.2461-.5977-.2461h-.5625c.9492-1.2305 1.5469-2.77734 1.5469-4.5 0-4.00781-3.3047-7.3125-7.3125-7.3125-4.04297 0-7.3125 3.30469-7.3125 7.3125 0 4.043 3.26953 7.3125 7.3125 7.3125 1.6875 0 3.2344-.5625 4.5-1.5469v.5977c0 .2109.0703.4219.2461.5976l3.4805 3.4805c.3515.3516.8789.3516 1.1953 0l.9844-.9844c.3515-.3164.3515-.8437.0351-1.1953zm-10.4414-3.7617c-2.49609 0-4.5-2.0039-4.5-4.5 0-2.46094 2.00391-4.5 4.5-4.5 2.46094 0 4.5 2.03906 4.5 4.5 0 2.4961-2.03906 4.5-4.5 4.5z" fill="#117cb6"/></svg>

<svg width="18" height="19" viewBox="0 0 18 19" fill="none" xmlns="http://www.w3.org/2000/svg">
<path d="M17.7539 15.8242L14.2383 12.3086C14.0625 12.168 13.8516 12.0625 13.6406 12.0625H13.0781C14.0273 10.832 14.625 9.28516 14.625 7.5625C14.625 3.55469 11.3203 0.25 7.3125 0.25C3.26953 0.25 0 3.55469 0 7.5625C0 11.6055 3.26953 14.875 7.3125 14.875C9 14.875 10.5469 14.3125 11.8125 13.3281V13.9258C11.8125 14.1367 11.8828 14.3477 12.0586 14.5234L15.5391 18.0039C15.8906 18.3555 16.418 18.3555 16.7344 18.0039L17.7188 17.0195C18.0703 16.7031 18.0703 16.1758 17.7539 15.8242ZM7.3125 12.0625C4.81641 12.0625 2.8125 10.0586 2.8125 7.5625C2.8125 5.10156 4.81641 3.0625 7.3125 3.0625C9.77344 3.0625 11.8125 5.10156 11.8125 7.5625C11.8125 10.0586 9.77344 12.0625 7.3125 12.0625Z" fill="#117CB6"/>
</svg>
